src/icons/fb-logo.svg

<svg width="28" height="28" viewBox="0 0 28 28" fill="none" xmlns="http://www.w3.org/2000/svg">
<path d="M28 14.0521C28 6.29053 21.7328 0 14 0C6.26719 0 0 6.29053 0 14.0521C0 20.6391 4.52266 26.1721 10.6203 27.6926V18.3446H7.73281V14.0521H10.6203V12.2023C10.6203 7.42129 12.775 5.20369 17.4563 5.20369C18.3422 5.20369 19.8734 5.37934 20.5023 5.55499V9.44129C20.1742 9.40835 19.6 9.3864 18.8836 9.3864C16.5867 9.3864 15.7008 10.2592 15.7008 12.5262V14.0521H20.2727L19.4852 18.3446H15.6953V28C22.6297 27.1602 28 21.2374 28 14.0521Z" fill="#227BEF"/>
</svg>

<svg xmlns="http://www.w3.org/2000/svg" width="28" height="28" fill="none">
  <path fill="#227BEF" d="M28 14.052C28 6.291 21.733 0 14 0S0 6.29 0 14.052c0 6.587 4.523 12.12 10.62 13.64v-9.347H7.733v-4.293h2.887v-1.85c0-4.78 2.155-6.998 6.836-6.998.886 0 2.417.175 3.046.351v3.886a18.375 18.375 0 0 0-1.618-.055c-2.297 0-3.183.873-3.183 3.14v1.526h4.572l-.788 4.293h-3.79V28C22.63 27.16 28 21.237 28 14.052Z"/>
</svg>
